dist/images/straightTube.svg

<?xml version="1.0" encoding="UTF-8"?>
<svg width="555px" height="84px" viewBox="0 0 555 84" version="1.1" xmlns="http://www.w3.org/2000/svg" xmlns:xlink="http://www.w3.org/1999/xlink">
    <!-- Generator: Sketch 47.1 (45422) - http://www.bohemiancoding.com/sketch -->
    <title>Tube</title>
    <desc>Created with Sketch.</desc>
    <defs>
        <linearGradient x1="0%" y1="40.8880025%" x2="100%" y2="40.8880025%" id="linearGradient-1">
            <stop stop-color="#464646" offset="0%"></stop>
            <stop stop-color="#ABABAB" offset="43.2063986%"></stop>
            <stop stop-color="#353535" offset="100%"></stop>
        </linearGradient>
        <path d="M1.49535708,5.5 L4.15482278,20.9967501 L2.11722656,24.4417823 L0,89 C3.65531731,177 5.48297596,234.5 5.48297596,261.5 C5.48297596,288.5 5.48297596,336.5 5.48297596,405.5 C10.135198,486.5 19.6057928,536 33.8947605,554 C33.8947605,554 41.2053951,554 55.8266643,554 C69.7833304,530 78.4231713,490.5 81.7461871,435.5 C86.7307107,353 74.767854,348 81.7461871,120 C81.7461871,120 81.5800363,119.166667 81.2477347,117.5 L81.7461871,80.5 L78.7652242,27.0083151 L75.4159108,18.5734543 L77.2601158,0 L1.49535708,5.5 Z" id="path-2"></path>
        <linearGradient x1="7.34839109%" y1="52.154517%" x2="92.2803218%" y2="52.1545172%" id="linearGradient-4">
            <stop stop-color="#A3A3A3" offset="0%"></stop>
            <stop stop-color="#FFFFFF" offset="34.2418033%"></stop>
            <stop stop-color="#FFFFFF" offset="47.9143898%"></stop>
            <stop stop-color="#9C9C9C" offset="100%"></stop>
        </linearGradient>
    </defs>
    <g id="Page-1" stroke="none" stroke-width="1" fill="none" fill-rule="evenodd">
        <g id="Artboard" transform="translate(-233.000000, -654.000000)">
            <g id="Tube" transform="translate(510.500000, 696.000000) rotate(90.000000) translate(-510.500000, -696.000000) translate(469.000000, 419.000000)">
                <mask id="mask-3" fill="white">
                    <use xlink:href="#path-2"></use>
                </mask>
                <use id="Mask" fill-opacity="0.7" fill="url(#linearGradient-1)" xlink:href="#path-2"></use>
                <path d="M81.5,113.561051 C76.8333333,141.558844 69.1666667,155.557741 58.5,155.557741 C47.8333333,155.557741 37.3333333,144.891915 27,123.560263 C10.3333333,88.2297136 1.16666667,76.5639663 -0.5,88.5630207 C-0.5,88.5630207 -3,88.5630207 -8,88.5630207 L-8,452.534338 C2.33333333,452.534338 7.33333333,452.534338 7,452.534338 C28,456.534023 52.5,497.030832 79,461.533629 C79,461.533629 83.6666667,461.533629 93,461.533629 L93,113.06109 L81.5,113.561051 Z" id="Path-8" fill="url(#linearGradient-4)" mask="url(#mask-3)"></path>
            </g>
        </g>
    </g>
</svg>

<svg width="555" height="84" viewBox="0 0 555 84" xmlns="http://www.w3.org/2000/svg" xmlns:xlink="http://www.w3.org/1999/xlink"><title>Tube</title><defs><linearGradient x1="0%" y1="40.888%" y2="40.888%" id="b"><stop stop-color="#464646" offset="0%"/><stop stop-color="#ABABAB" offset="43.206%"/><stop stop-color="#353535" offset="100%"/></linearGradient><path d="M1.495 5.5l2.66 15.497-2.038 3.445L0 89c3.655 88 5.483 145.5 5.483 172.5v144c4.652 81 14.123 130.5 28.412 148.5h21.932c13.956-24 22.596-63.5 25.92-118.5 4.984-82.5-6.98-87.5 0-315.5l-.5-2.5.5-37-2.982-53.492-3.35-8.435L77.26 0 1.495 5.5z" id="a"/><linearGradient x1="7.348%" y1="52.155%" x2="92.28%" y2="52.155%" id="c"><stop stop-color="#A3A3A3" offset="0%"/><stop stop-color="#FFF" offset="34.242%"/><stop stop-color="#FFF" offset="47.914%"/><stop stop-color="#9C9C9C" offset="100%"/></linearGradient></defs><g transform="rotate(90 277 277.5)" fill="none" fill-rule="evenodd"><mask id="d" fill="#fff"><use xlink:href="#a"/></mask><use fill-opacity=".7" fill="url(#b)" xlink:href="#a"/><path d="M81.5 113.561c-4.667 27.998-12.333 41.997-23 41.997S37.333 144.892 27 123.56C10.333 88.23 1.167 76.564-.5 88.563H-8v363.971H7c21 4 45.5 44.497 72 9h14V113.06l-11.5.5z" fill="url(#c)" mask="url(#d)"/></g></svg>
